X:1
T:The Gentle Shepherd
C:Joshua Campbell
L:1/8
M:6/8
I:linebreak $
K:G
V:1 treble 
V:1
 B/c/ |"G" dBG Bge | dBG Bge | dBG dBG |"D" AAA A B/c/ |"G" dBG Bge | dBG Bge | dBG"D" cAF |$ %8
"G" GGG G2 || B,/C/ |"G" DB,D"C" ECE |"D" FDA"G" B2 G |"D" DB,D"C" ECE |"D" FDd"G" B2 G | %14
"G" DB,D"C" ECE |"D" FDA"G" B2 G |$ dBd"Am" ece |"D" fdb"G" g2 |] %18
